src/assets/icons/firecrawl.svg

<svg width="50" height="72" viewBox="0 0 50 72" fill="none" xmlns="http://www.w3.org/2000/svg">
<path d="M41.7154 23.1929C38.9531 24.0129 36.8707 25.8677 35.3457 27.8826C35.0183 28.3151 34.3358 27.9901 34.4658 27.4601C37.3856 15.4534 33.5283 5.47401 21.5039 0.561817C20.894 0.311833 20.259 0.859299 20.419 1.49926C25.8887 23.4604 2.88236 21.608 5.78971 46.504C5.83971 46.9314 5.35973 47.2239 5.00975 46.9739C3.9198 46.1915 2.70237 44.5591 1.86741 43.4116C1.62242 43.0742 1.09245 43.1692 0.979951 43.5716C0.314984 45.9765 0 48.2413 0 50.4912C0 59.2407 4.49727 66.9427 11.3044 71.4074C11.6944 71.6624 12.1944 71.2974 12.0619 70.8499C11.7119 69.675 11.5144 68.4351 11.4994 67.1527C11.4994 66.3652 11.5494 65.5603 11.6719 64.8103C11.9569 62.9254 12.6119 61.1305 13.7118 59.4957C17.4841 53.8335 25.0462 48.3638 23.8388 40.9368C23.7613 40.4668 24.3163 40.1569 24.6663 40.4793C29.9935 45.3465 31.0485 51.8936 30.1735 57.7658C30.0985 58.2757 30.7385 58.5482 31.061 58.1482C31.8759 57.1283 32.8709 56.2334 33.9533 55.5609C34.2233 55.3934 34.5833 55.5209 34.6858 55.8209C35.2882 57.5733 36.1832 59.2182 37.0281 60.8631C38.0381 62.8404 38.5756 65.0978 38.4906 67.4877C38.4481 68.6501 38.2556 69.775 37.9331 70.8449C37.7956 71.2974 38.2906 71.6749 38.6881 71.4149C45.5002 66.9502 50 59.2482 50 50.4937C50 47.4514 49.4675 44.4691 48.4601 41.6743C46.3477 35.8121 40.988 31.4099 42.3429 23.7704C42.4079 23.4054 42.0704 23.0879 41.7154 23.1929Z" fill="#FA5D19" style="fill:#FA5D19;fill:color(display-p3 0.9816 0.3634 0.0984);fill-opacity:1;"/>
</svg>

<svg xmlns="http://www.w3.org/2000/svg" width="50" height="72" fill="none" viewBox="0 0 50 72"><path fill="#fa5d19" d="M41.715 23.193c-2.762.82-4.844 2.675-6.37 4.69-.327.432-1.01.107-.88-.423 2.92-12.007-.937-21.986-12.961-26.898a.803.803 0 0 0-1.085.937c5.47 21.961-17.537 20.109-14.63 45.005.05.427-.43.72-.78.47-1.09-.782-2.307-2.415-3.142-3.562a.502.502 0 0 0-.887.16c-.665 2.404-.98 4.67-.98 6.92 0 8.749 4.497 16.45 11.304 20.915.39.255.89-.11.758-.557a13.5 13.5 0 0 1-.563-3.697c0-.788.05-1.593.173-2.343.285-1.885.94-3.68 2.04-5.314 3.772-5.663 11.334-11.132 10.127-18.56-.078-.47.477-.78.827-.457 5.328 4.868 6.383 11.415 5.508 17.287-.075.51.564.782.887.382a11.6 11.6 0 0 1 2.892-2.587c.27-.168.63-.04.733.26.602 1.752 1.497 3.397 2.342 5.042a13.46 13.46 0 0 1 .905 9.982.502.502 0 0 0 .755.57C45.5 66.95 50 59.248 50 50.494c0-3.043-.532-6.025-1.54-8.82-2.112-5.862-7.472-10.264-6.117-17.904.065-.365-.273-.682-.628-.577" style="fill:#fa5d19;fill:color(display-p3 .9816 .3634 .0984);fill-opacity:1"/></svg>
